X: 23397
T: Lep The Table
R: slide
M: 12/8
K: Dmajor
|:F2 A BAF ABA D2 E|F2 A BAF E3 E3|
F2 A BAF ABA D2 E|1 F2 A B2 A d3 d3:|2 F2 A B2 A d3 d2 B||
|:A2 d fed e2 d B2 d|A2 d fed efe d2 B|
A2 d fed e2 d B2 d|1 a2 f efe d3 d2 B:|2 a2 f efe d3 d3||

